outputs/icons/hardware/video_play_round.svg

<svg xmlns="http://www.w3.org/2000/svg" width="1200" height="1200" fill="none"><g clip-path="url(#a)"><path fill="#000" d="M1000 200H200c-55 0-100 45-100 100v600c0 55 45 100 100 100h800c55 0 100-45 100-100V300c0-55-45-100-100-100M475 733.5v-267c0-39.5 44-63.5 77-42L759.5 558c30.5 19.5 30.5 64.5 0 84L552 775.5c-33 21.5-77-2.5-77-42"/></g><defs><clipPath id="a"><path fill="#fff" d="M0 0h1200v1200H0z"/></clipPath></defs></svg>

<svg width="1200" height="1200" viewBox="0 0 1200 1200" fill="none" xmlns="http://www.w3.org/2000/svg"><g clip-path="url(#clip0_238_1286)"><path d="M1000 200H200C145 200 100 245 100 300V900C100 955 145 1000 200 1000H1000C1055 1000 1100 955 1100 900V300C1100 245 1055 200 1000 200ZM475 733.5V466.5C475 427 519 403 552 424.5L759.5 558C790 577.5 790 622.5 759.5 642L552 775.5C519 797 475 773 475 733.5Z" fill="black"/></g><defs><clipPath id="clip0_238_1286"><path width="24" fill="white" d="M0 0H1200V1200H0V0z"/></clipPath></defs></svg>
